landing/src/images/sun.svg

<svg fill="none" height="20" viewBox="0 0 20 20" width="20" xmlns="http://www.w3.org/2000/svg"><path d="m10 1v1.00002m0 15.99998v1m-8-9h-1m3.31412-5.68587-.68913-.68913m12.06091.68913.6891-.68913m-12.06088 12.065-.68913.6891m12.06091-.6891.6891.6891m2.625-6.3791h-1m-3 0c0 2.7614-2.2386 5-5 5-2.76142 0-5-2.2386-5-5 0-2.76141 2.23858-4.99998 5-4.99998 2.7614 0 5 2.23857 5 4.99998z" stroke="#e2e2e2" stroke-linecap="round" stroke-linejoin="round" stroke-width="2"/></svg>

<svg width="20" height="20" viewBox="0 0 20 20" fill="none" xmlns="http://www.w3.org/2000/svg">
<path d="M10 1V2.00002M10 18V19M2 10H1M4.31412 4.31413L3.62499 3.625M15.6859 4.31413L16.375 3.625M4.31412 15.69L3.62499 16.3791M15.6859 15.69L16.375 16.3791M19 10L18 10M15 10C15 12.7614 12.7614 15 10 15C7.23858 15 5 12.7614 5 10C5 7.23859 7.23858 5.00002 10 5.00002C12.7614 5.00002 15 7.23859 15 10Z" stroke="#E2E2E2" stroke-width="2" stroke-linecap="round" stroke-linejoin="round"/>
</svg>
